src/assets/icon.svg

<svg fill="none" height="48" viewBox="0 0 48 48" width="48" xmlns="http://www.w3.org/2000/svg"><path d="m24.003 0c-13.2569 0-24.003 10.7474-24.003 24s10.7461 24 24.003 24c13.2568 0 23.997-10.7474 23.997-24s-10.7411-24-23.997-24zm13.6604 34.1524c-3.0006.2598-6.1024-.8271-8.3612-2.7769-4.0326-3.6661-8.0073-7.3947-11.9242-11.1857l-.0059 15.3163c-1.7036.1243-3.4069.2513-5.1098.3809 0-6.521 0-13.0424 0-19.564.1229-2.3118-1.9515-3.0804-1.9515-3.0804h7.1465c4.3109 4.3888 8.6988 8.6979 13.1637 12.9273.7744.7537 1.1612 1.1286 1.9346 1.8744l.0179-14.8026h5.1167c-.0086 6.9699-.0175 13.9401-.0268 20.9107z" fill="#fff"/></svg>

<svg width="48" height="48" viewBox="0 0 48 48" fill="none" xmlns="http://www.w3.org/2000/svg">
<path d="M24.003 0C10.7461 0 0 10.7474 0 24C0 37.2526 10.7461 48 24.003 48C37.2598 48 48 37.2526 48 24C48 10.7474 37.2589 0 24.003 0ZM37.6634 34.1524C34.6628 34.4122 31.561 33.3253 29.3022 31.3755C25.2696 27.7094 21.2949 23.9808 17.378 20.1898L17.3721 35.5061C15.6685 35.6304 13.9652 35.7574 12.2623 35.887C12.2623 29.366 12.2623 22.8446 12.2623 16.323C12.3852 14.0112 10.3108 13.2426 10.3108 13.2426H17.4573C21.7682 17.6314 26.1561 21.9405 30.621 26.1699C31.3954 26.9236 31.7822 27.2985 32.5556 28.0443L32.5735 13.2417H37.6902C37.6816 20.2116 37.6727 27.1818 37.6634 34.1524Z" fill="white"/>
</svg>
